X:1
T: Medway Jig Trilogy: #4
C: J-59
C: Paul Milde 1998
M: 6/8
Z:
R: jig
K: D
A| "D"dcd "G"edB| "D"A3 F2G| A2F FED| "A"EDE "D"F2A|
      dcd "G"edB| "A"ABA "D"F2D| F2E FED| "A"EFE "D"D2A|
   "D"dcd "G"edB| "A"ABA "D"F2G| ABA AGF| "A"EDE "D"F2A|
      d2d "A"cAB| "G"cdB "A"A2G| "D"F2D FED| "A"EFE "D"D2 |]
\
D| "D"d3 "A"ede| "D"f3 a2f| "G"gfe "D"f2d| fed "A"e2a |
   "D"a2g f2e| def "A"e3| ABc e2c| edc "D"d2A|
   "D"d3 "A"ede| "D"f3 a2f| "G"gfe "D"f2d| fed "A"e2a |
   "D"a2a fed| agf ez2| DEF AGF| "A"EFE "D"D2 |]
%
